public/icons/img/pending-payments.svg

<?xml version="1.0" encoding="UTF-8"?>
<svg width="50px" height="49px" viewBox="0 0 50 49" version="1.1" xmlns="http://www.w3.org/2000/svg" xmlns:xlink="http://www.w3.org/1999/xlink">
    <title>UI Elements/Icon / Account Settings / Pending Payments</title>
    <defs>
        <path d="M16.484375,29.2783203 L18.4895833,29.2783203 C19.4444492,29.2783203 20.1519074,29.0433373 20.6119792,28.5733643 C21.0720509,28.1033912 21.3020833,27.4796181 21.3020833,26.7020264 C21.3020833,25.9500695 21.074221,25.3647482 20.6184896,24.9460449 C20.1627581,24.5273417 19.5355943,24.3179932 18.7369792,24.3179932 C18.0164895,24.3179932 17.4131969,24.5123882 16.9270833,24.9011841 C16.4409698,25.28998 16.1979167,25.7962615 16.1979167,26.4200439 L12.4348958,26.4200439 C12.4348958,25.445918 12.7018202,24.5722085 13.2356771,23.7988892 C13.7695339,23.0255699 14.5160542,22.4210227 15.4752604,21.9852295 C16.4344666,21.5494363 17.4913137,21.331543 18.6458333,21.331543 C20.6510517,21.331543 22.2222165,21.8036452 23.359375,22.7478638 C24.4965335,23.6920824 25.0651042,24.9930337 25.0651042,26.6507568 C25.0651042,27.5052533 24.8003499,28.2913782 24.2708333,29.0091553 C23.7413168,29.7269323 23.0468793,30.2780742 22.1875,30.6625977 C23.2552137,31.0385761 24.0516467,31.6025353 24.5768229,32.3544922 C25.1019992,33.1064491 25.3645833,33.9951121 25.3645833,35.0205078 C25.3645833,36.6782309 24.7504402,38.006953 23.5221354,39.0067139 C22.2938307,40.0064747 20.6684129,40.5063477 18.6458333,40.5063477 C16.7534628,40.5063477 15.2061692,40.0150196 14.0039062,39.0323486 C12.8016433,38.0496777 12.2005208,36.7508626 12.2005208,35.1358643 L15.9635417,35.1358643 C15.9635417,35.8365514 16.2304661,36.4090554 16.7643229,36.8533936 C17.2981798,37.2977317 17.9557253,37.5198975 18.7369792,37.5198975 C19.6310809,37.5198975 20.3320287,37.2870507 20.8398438,36.8213501 C21.3476588,36.3556495 21.6015625,35.7382851 21.6015625,34.9692383 C21.6015625,33.106436 20.5599062,32.1750488 18.4765625,32.1750488 L16.484375,32.1750488 L16.484375,29.2783203 Z M37.0963542,40.25 L33.3333333,40.25 L33.3333333,25.9714355 L28.8411458,27.3428955 L28.8411458,24.3308105 L36.6927083,21.5622559 L37.0963542,21.5622559 L37.0963542,40.25 Z" id="path-1"></path>
        <filter x="-2.0%" y="-2.6%" width="104.0%" height="110.4%" filterUnits="objectBoundingBox" id="filter-2">
            <feOffset dx="0" dy="1" in="SourceAlpha" result="shadowOffsetOuter1"></feOffset>
            <feColorMatrix values="0 0 0 0 0   0 0 0 0 0   0 0 0 0 0  0 0 0 0.1 0" type="matrix" in="shadowOffsetOuter1"></feColorMatrix>
        </filter>
    </defs>
    <g id="Iconography-&amp;-Interface-Details" stroke="none" stroke-width="1" fill="none" fill-rule="evenodd">
        <g id="Icons" transform="translate(-958.000000, -707.000000)">
            <g id="UI-Elements/Icon-/-Account-Settings-/-Pending-Payments" transform="translate(951.000000, 700.000000)">
                <rect id="Rectangle" x="0" y="0" width="64" height="63"></rect>
                <g id="Group" transform="translate(7.111111, 7.000000)">
                    <path d="M0,17.5 L49.7777778,17.5 L49.7777778,47 C49.7777778,48.1045695 48.8823473,49 47.7777778,49 L2,49 C0.8954305,49 1.87533573e-15,48.1045695 0,47 L0,17.5 L0,17.5 Z" id="Rectangle" fill="#00B16E"></path>
                    <path d="M1,3.5 L48.7777778,3.5 C49.3300625,3.5 49.7777778,3.94771525 49.7777778,4.5 L49.7777778,17.5 L49.7777778,17.5 L-1.76846192e-13,17.5 L-1.76846192e-13,4.5 C-1.76913827e-13,3.94771525 0.44771525,3.5 1,3.5 Z" id="Rectangle" fill="#004B2E"></path>
                    <path d="M9.88888889,0 L15,0 C15.5522847,-1.01453063e-16 16,0.44771525 16,1 L16,9.5 C16,10.0522847 15.5522847,10.5 15,10.5 L9.88888889,10.5 C9.33660414,10.5 8.88888889,10.0522847 8.88888889,9.5 L8.88888889,1 C8.88888889,0.44771525 9.33660414,1.01453063e-16 9.88888889,0 Z" id="Rectangle-Copy" fill="#00B16E"></path>
                    <path d="M34.7777778,0 L39.8888889,0 C40.4411736,3.89074334e-16 40.8888889,0.44771525 40.8888889,1 L40.8888889,9.5 C40.8888889,10.0522847 40.4411736,10.5 39.8888889,10.5 L34.7777778,10.5 C34.225493,10.5 33.7777778,10.0522847 33.7777778,9.5 L33.7777778,1 C33.7777778,0.44771525 34.225493,1.01453063e-16 34.7777778,0 Z" id="Rectangle-Copy-4" fill="#00B16E"></path>
                    <g id="31" fill-rule="nonzero">
                        <use fill="black" fill-opacity="1" filter="url(#filter-2)" xlink:href="#path-1"></use>
                        <use fill="#FFFFFF" xlink:href="#path-1"></use>
                    </g>
                </g>
            </g>
        </g>
    </g>
</svg>

<svg xmlns="http://www.w3.org/2000/svg" xmlns:xlink="http://www.w3.org/1999/xlink" width="50" height="49"
     xmlns:v="https://vecta.io/nano">
    <defs>
        <path d="M16.484 29.278H18.5c.955 0 1.662-.235 2.122-.705s.7-1.094.7-1.87c0-.752-.228-1.337-.684-1.756s-1.083-.628-1.882-.628c-.72 0-1.324.194-1.8.583a1.85 1.85 0 0 0-.729 1.519h-3.763c0-.974.267-1.848.8-2.62s1.28-1.378 2.24-1.814 2.016-.654 3.17-.654c2.005 0 3.576.472 4.714 1.416s1.706 2.245 1.706 3.903c0 .854-.265 1.64-.794 2.358s-1.224 1.27-2.083 1.653c1.068.376 1.864.94 2.39 1.692s.788 1.64.788 2.666c0 1.658-.614 2.986-1.842 3.986s-2.854 1.5-4.876 1.5c-1.892 0-3.44-.49-4.642-1.474S12.2 36.75 12.2 35.136h3.763a2.13 2.13 0 0 0 .801 1.718c.534.444 1.19.667 1.973.667.894 0 1.595-.233 2.103-.7s.762-1.083.762-1.852c0-1.863-1.042-2.794-3.125-2.794h-1.992v-2.897zM37.096 40.25h-3.763V25.97l-4.492 1.37V24.33l7.852-2.77h.404V40.25z"
              id="A"/>
        <filter x="-2.0%" y="-2.6%" width="104.0%" height="110.4%" id="B">
            <feOffset dy="1" in="SourceAlpha"/>
            <feColorMatrix values="0 0 0 0 0 0 0 0 0 0 0 0 0 0 0 0 0 0 0.1 0"/>
        </filter>
    </defs>
    <g transform="translate(.111)" fill="none" fill-rule="evenodd">
        <path d="M0 17.5h49.778V47a2 2 0 0 1-2 2H2a2 2 0 0 1-2-2V17.5z" fill="#00b16e"/>
        <path d="M1 3.5h47.778a1 1 0 0 1 1 1v13H0v-13a1 1 0 0 1 1-1z" fill="#004b2e"/>
        <path d="M9.9 0H15a1 1 0 0 1 1 1v8.5a1 1 0 0 1-1 1H9.9a1 1 0 0 1-1-1V1a1 1 0 0 1 1-1zm24.888 0h5.1a1 1 0 0 1 1 1v8.5a1 1 0 0 1-1 1h-5.1a1 1 0 0 1-1-1V1a1 1 0 0 1 1-1z"
              fill="#00b16e"/>
        <g fill-rule="nonzero">
            <use fill="#000" filter="url(#B)" xlink:href="#A"/>
            <use fill="#fff" xlink:href="#A"/>
        </g>
    </g>
</svg>
